Newaita/actions/32/draw-text.svg

<svg height="32" viewBox="0 0 32 32" width="32" xmlns="http://www.w3.org/2000/svg"><g fill="#424242"><path d="m15.214844 6.867188h1.324218c.363282 0 .660157.292968.660157.660156v14.554687c0 .363281-.296875.660157-.660157.660157h-1.324218c-.363282 0-.660156-.296876-.660156-.660157v-14.554687c0-.367188.296874-.660156.660156-.660156zm0 0"/><path d="m9.921875 6.867188h11.910156c.363281 0 .660157.292968.660157.660156v1.324218c0 .363282-.296876.660157-.660157.660157h-11.910156c-.363281 0-.660156-.296875-.660156-.660157v-1.324218c0-.367188.296875-.660156.660156-.660156zm0 0"/><path d="m5.953125 4.21875c.367187 0 .660156.296875.660156.660156v22.492188c0 .367187-.292969.664062-.660156.664062-.363281 0-.660156-.296875-.660156-.664062v-22.492188c0-.363281.296875-.660156.660156-.660156zm0 0"/><path d="m25.800781 4.21875c.363281 0 .660157.296875.660157.660156v22.492188c0 .367187-.296876.664062-.660157.664062-.367187 0-.664062-.296875-.664062-.664062v-22.492188c0-.363281.296875-.660156.664062-.660156zm0 0"/><path d="m27.785156 26.050781c0 .363281-.296875.660157-.664062.660157h-22.492188c-.363281 0-.660156-.296876-.660156-.660157 0-.367187.296875-.664062.660156-.664062h22.492188c.367187 0 .664062.296875.664062.664062zm0 0"/><path d="m9.921875 6.867188h1.324219c.363281 0 .660156.292968.660156.660156v2.644531c0 .367187-.296875.664063-.660156.664063h-1.324219c-.363281 0-.660156-.296876-.660156-.664063v-2.644531c0-.367188.296875-.660156.660156-.660156zm0 0"/><path d="m20.507812 6.867188h1.324219c.363281 0 .660157.292968.660157.660156v2.644531c0 .367187-.296876.664063-.660157.664063h-1.324219c-.367187 0-.664062-.296876-.664062-.664063v-2.644531c0-.367188.296875-.660156.664062-.660156zm0 0"/></g></svg>

<svg xmlns="http://www.w3.org/2000/svg" xmlns:xlink="http://www.w3.org/1999/xlink" width="32px" height="32px" viewBox="0 0 32 32" version="1.1">
<g id="surface1">
     <defs>
  <style id="current-color-scheme" type="text/css">
   .ColorScheme-Text { color:#424242; } .ColorScheme-Highlight { color:#eeeeee; }
  </style>
 </defs>
<path style="fill:currentColor" class="ColorScheme-Text" d="M 15.214844 6.867188 L 16.539062 6.867188 C 16.902344 6.867188 17.199219 7.160156 17.199219 7.527344 L 17.199219 22.082031 C 17.199219 22.445312 16.902344 22.742188 16.539062 22.742188 L 15.214844 22.742188 C 14.851562 22.742188 14.554688 22.445312 14.554688 22.082031 L 14.554688 7.527344 C 14.554688 7.160156 14.851562 6.867188 15.214844 6.867188 Z M 15.214844 6.867188 "/>
     <defs>
  <style id="current-color-scheme" type="text/css">
   .ColorScheme-Text { color:#424242; } .ColorScheme-Highlight { color:#eeeeee; }
  </style>
 </defs>
<path style="fill:currentColor" class="ColorScheme-Text" d="M 9.921875 6.867188 L 21.832031 6.867188 C 22.195312 6.867188 22.492188 7.160156 22.492188 7.527344 L 22.492188 8.851562 C 22.492188 9.214844 22.195312 9.511719 21.832031 9.511719 L 9.921875 9.511719 C 9.558594 9.511719 9.261719 9.214844 9.261719 8.851562 L 9.261719 7.527344 C 9.261719 7.160156 9.558594 6.867188 9.921875 6.867188 Z M 9.921875 6.867188 "/>
     <defs>
  <style id="current-color-scheme" type="text/css">
   .ColorScheme-Text { color:#424242; } .ColorScheme-Highlight { color:#eeeeee; }
  </style>
 </defs>
<path style="fill:currentColor" class="ColorScheme-Text" d="M 5.953125 4.21875 C 6.320312 4.21875 6.613281 4.515625 6.613281 4.878906 L 6.613281 27.371094 C 6.613281 27.738281 6.320312 28.035156 5.953125 28.035156 C 5.589844 28.035156 5.292969 27.738281 5.292969 27.371094 L 5.292969 4.878906 C 5.292969 4.515625 5.589844 4.21875 5.953125 4.21875 Z M 5.953125 4.21875 "/>
     <defs>
  <style id="current-color-scheme" type="text/css">
   .ColorScheme-Text { color:#424242; } .ColorScheme-Highlight { color:#eeeeee; }
  </style>
 </defs>
<path style="fill:currentColor" class="ColorScheme-Text" d="M 25.800781 4.21875 C 26.164062 4.21875 26.460938 4.515625 26.460938 4.878906 L 26.460938 27.371094 C 26.460938 27.738281 26.164062 28.035156 25.800781 28.035156 C 25.433594 28.035156 25.136719 27.738281 25.136719 27.371094 L 25.136719 4.878906 C 25.136719 4.515625 25.433594 4.21875 25.800781 4.21875 Z M 25.800781 4.21875 "/>
     <defs>
  <style id="current-color-scheme" type="text/css">
   .ColorScheme-Text { color:#424242; } .ColorScheme-Highlight { color:#eeeeee; }
  </style>
 </defs>
<path style="fill:currentColor" class="ColorScheme-Text" d="M 27.785156 26.050781 C 27.785156 26.414062 27.488281 26.710938 27.121094 26.710938 L 4.628906 26.710938 C 4.265625 26.710938 3.96875 26.414062 3.96875 26.050781 C 3.96875 25.683594 4.265625 25.386719 4.628906 25.386719 L 27.121094 25.386719 C 27.488281 25.386719 27.785156 25.683594 27.785156 26.050781 Z M 27.785156 26.050781 "/>
     <defs>
  <style id="current-color-scheme" type="text/css">
   .ColorScheme-Text { color:#424242; } .ColorScheme-Highlight { color:#eeeeee; }
  </style>
 </defs>
<path style="fill:currentColor" class="ColorScheme-Text" d="M 9.921875 6.867188 L 11.246094 6.867188 C 11.609375 6.867188 11.90625 7.160156 11.90625 7.527344 L 11.90625 10.171875 C 11.90625 10.539062 11.609375 10.835938 11.246094 10.835938 L 9.921875 10.835938 C 9.558594 10.835938 9.261719 10.539062 9.261719 10.171875 L 9.261719 7.527344 C 9.261719 7.160156 9.558594 6.867188 9.921875 6.867188 Z M 9.921875 6.867188 "/>
     <defs>
  <style id="current-color-scheme" type="text/css">
   .ColorScheme-Text { color:#424242; } .ColorScheme-Highlight { color:#eeeeee; }
  </style>
 </defs>
<path style="fill:currentColor" class="ColorScheme-Text" d="M 20.507812 6.867188 L 21.832031 6.867188 C 22.195312 6.867188 22.492188 7.160156 22.492188 7.527344 L 22.492188 10.171875 C 22.492188 10.539062 22.195312 10.835938 21.832031 10.835938 L 20.507812 10.835938 C 20.140625 10.835938 19.84375 10.539062 19.84375 10.171875 L 19.84375 7.527344 C 19.84375 7.160156 20.140625 6.867188 20.507812 6.867188 Z M 20.507812 6.867188 "/>
</g>
</svg>
